src/icon.svg

<?xml version="1.0" encoding="UTF-8" standalone="no"?>
<svg width="100px" height="100px" viewBox="0 0 100 100" version="1.1" xmlns="http://www.w3.org/2000/svg" xmlns:xlink="http://www.w3.org/1999/xlink" xmlns:sketch="http://www.bohemiancoding.com/sketch/ns">
    <!-- Generator: Sketch 3.1.1 (8761) - http://www.bohemiancoding.com/sketch -->
    <title>CP CSS</title>
    <desc>Created with Sketch.</desc>
    <defs></defs>
    <g id="Page-1" stroke="none" stroke-width="1" fill="none" fill-rule="evenodd" sketch:type="MSPage">
        <circle id="circle" fill="#D17600" sketch:type="MSShapeGroup" cx="50" cy="50" r="50"></circle>
        <path d="M37.7459023,35.4213867 L37.7459023,41.3510742 C34.8526587,38.9304892 31.859199,37.7202148 28.7654335,37.7202148 C25.3565623,37.7202148 22.4848463,38.944812 20.1501992,41.394043 C17.8012291,43.828951 16.6267617,46.8080879 16.6267617,50.331543 C16.6267617,53.8120291 17.8012291,56.7481977 20.1501992,59.1401367 C22.4991693,61.5320758 25.3780467,62.7280273 28.7869179,62.7280273 C30.5486455,62.7280273 32.0453753,62.4415719 33.2771523,61.8686523 C33.9646557,61.5821926 34.6772137,61.1954777 35.4148476,60.7084961 C36.1524815,60.2215145 36.929492,59.6342808 37.7459023,58.9467773 L37.7459023,64.9838867 C34.8813046,66.6023844 31.8735222,67.4116211 28.7224648,67.4116211 C23.9815557,67.4116211 19.9353722,65.7573408 16.5837929,62.4487305 C13.2465367,59.1114742 11.5779335,55.0867749 11.5779335,50.3745117 C11.5779335,46.1492302 12.974404,42.3823408 15.7673867,39.0737305 C19.2049039,35.0203248 23.652125,32.9936523 29.1091835,32.9936523 C32.0883651,32.9936523 34.9672426,33.802889 37.7459023,35.4213867 L37.7459023,35.4213867 Z M61.2681653,38.5795898 L57.2076185,40.9858398 C56.4485001,39.6681249 55.7252,38.8087585 55.0376966,38.4077148 C54.3215472,37.9493792 53.3977283,37.7202148 52.2662122,37.7202148 C50.8768824,37.7202148 49.7238991,38.1140911 48.8072278,38.9018555 C47.8905566,39.6752968 47.4322278,40.6492454 47.4322278,41.8237305 C47.4322278,43.4422281 48.6353408,44.7456005 51.0416028,45.7338867 L54.3501966,47.0874023 C57.0429184,48.1759495 59.0122997,49.5043867 60.2583997,51.0727539 C61.5044997,52.6411211 62.1275403,54.5639535 62.1275403,56.8413086 C62.1275403,59.8921051 61.1106234,62.4129132 59.0767591,64.4038086 C57.0285718,66.409027 54.4862795,67.4116211 51.449806,67.4116211 C48.5708853,67.4116211 46.1933049,66.5594161 44.3169935,64.8549805 C42.469328,63.1505449 41.3163447,60.7514803 40.8580091,57.6577148 L45.9283216,56.5405273 C46.1574894,58.4884538 46.5585271,59.8347945 47.1314466,60.5795898 C48.1627018,62.0118887 49.666593,62.7280273 51.6431653,62.7280273 C53.2043711,62.7280273 54.5005821,62.2052461 55.5318372,61.159668 C56.5630924,60.1140898 57.0787122,58.7892333 57.0787122,57.1850586 C57.0787122,56.5405241 56.9891949,55.9497097 56.8101575,55.4125977 C56.6311202,54.8754856 56.3518261,54.3813499 55.9722669,53.9301758 C55.5927077,53.4790017 55.1021527,53.0564798 54.5005872,52.6625977 C53.8990217,52.2687155 53.182883,51.8927427 52.3521497,51.534668 L49.1509778,50.2026367 C44.6105906,48.2833563 42.340431,45.4760927 42.340431,41.7807617 C42.340431,39.2885618 43.2928954,37.2045982 45.1978528,35.5288086 C47.1028103,33.838696 49.4732293,32.9936523 52.309181,32.9936523 C56.1334188,32.9936523 59.1197171,34.8556129 61.2681653,38.5795898 L61.2681653,38.5795898 Z M85.3705065,38.5795898 L81.3099597,40.9858398 C80.5508413,39.6681249 79.8275412,38.8087585 79.1400378,38.4077148 C78.4238884,37.9493792 77.5000695,37.7202148 76.3685534,37.7202148 C74.9792235,37.7202148 73.8262403,38.1140911 72.909569,38.9018555 C71.9928978,39.6752968 71.534569,40.6492454 71.534569,41.8237305 C71.534569,43.4422281 72.737682,44.7456005 75.143944,45.7338867 L78.4525378,47.0874023 C81.1452596,48.1759495 83.1146409,49.5043867 84.3607409,51.0727539 C85.6068409,52.6411211 86.2298815,54.5639535 86.2298815,56.8413086 C86.2298815,59.8921051 85.2129646,62.4129132 83.1791003,64.4038086 C81.130913,66.409027 78.5886207,67.4116211 75.5521472,67.4116211 C72.6732265,67.4116211 70.2956461,66.5594161 68.4193347,64.8549805 C66.5716692,63.1505449 65.4186859,60.7514803 64.9603503,57.6577148 L70.0306628,56.5405273 C70.2598306,58.4884538 70.6608682,59.8347945 71.2337878,60.5795898 C72.2650429,62.0118887 73.7689341,62.7280273 75.7455065,62.7280273 C77.3067122,62.7280273 78.6029232,62.2052461 79.6341784,61.159668 C80.6654336,60.1140898 81.1810534,58.7892333 81.1810534,57.1850586 C81.1810534,56.5405241 81.0915361,55.9497097 80.9124987,55.4125977 C80.7334614,54.8754856 80.4541673,54.3813499 80.0746081,53.9301758 C79.6950489,53.4790017 79.2044939,53.0564798 78.6029284,52.6625977 C78.0013629,52.2687155 77.2852242,51.8927427 76.4544909,51.534668 L73.253319,50.2026367 C68.7129317,48.2833563 66.4427722,45.4760927 66.4427722,41.7807617 C66.4427722,39.2885618 67.3952366,37.2045982 69.300194,35.5288086 C71.2051515,33.838696 73.5755705,32.9936523 76.4115222,32.9936523 C80.23576,32.9936523 83.2220583,34.8556129 85.3705065,38.5795898 L85.3705065,38.5795898 Z" id="CSS-(outline)" fill="#FFFFFF" sketch:type="MSShapeGroup"></path>
    </g>
</svg>

<svg xmlns="http://www.w3.org/2000/svg" width="100" height="100" viewBox="0 0 100 100">
    <circle fill="#d17600" cx="50" cy="50" r="50"/>
    <path fill="#fff" d="M37.746 35.421v5.93c-2.893-2.421-5.887-3.631-8.98-3.631-3.409 0-6.281 1.225-8.615 3.674-2.349 2.435-3.523 5.414-3.523 8.938 0 3.48 1.174 6.417 3.523 8.809s5.228 3.588 8.637 3.588c1.762 0 3.258-.286 4.49-.859a12.95 12.95 0 0 0 2.138-1.16c.738-.487 1.515-1.074 2.331-1.762v6.037c-2.865 1.618-5.872 2.428-9.023 2.428-4.741 0-8.787-1.654-12.139-4.963-3.337-3.337-5.006-7.362-5.006-12.074 0-4.225 1.396-7.992 4.189-11.301 3.438-4.053 7.885-6.08 13.342-6.08 2.979 0 5.858.809 8.637 2.428h0zm23.522 3.158l-4.061 2.406c-.759-1.318-1.482-2.177-2.17-2.578-.716-.458-1.64-.687-2.771-.687-1.389 0-2.542.394-3.459 1.182-.917.773-1.375 1.747-1.375 2.922 0 1.618 1.203 2.922 3.609 3.91l3.309 1.354c2.693 1.089 4.662 2.417 5.908 3.985s1.869 3.491 1.869 5.769c0 3.051-1.017 5.572-3.051 7.563-2.048 2.005-4.59 3.008-7.627 3.008-2.879 0-5.257-.852-7.133-2.557-1.848-1.704-3.001-4.104-3.459-7.197l5.07-1.117c.229 1.948.63 3.294 1.203 4.039 1.031 1.432 2.535 2.148 4.512 2.148 1.561 0 2.857-.523 3.889-1.568s1.547-2.37 1.547-3.975c0-.645-.09-1.235-.269-1.772s-.458-1.031-.838-1.482-.87-.874-1.472-1.268-1.318-.77-2.148-1.128l-3.201-1.332c-4.54-1.919-6.811-4.727-6.811-8.422 0-2.492.952-4.576 2.857-6.252 1.905-1.69 4.275-2.535 7.111-2.535 3.824 0 6.811 1.862 8.959 5.586h0zm24.102 0l-4.061 2.406c-.759-1.318-1.482-2.177-2.17-2.578-.716-.458-1.64-.687-2.771-.687-1.389 0-2.542.394-3.459 1.182-.917.773-1.375 1.747-1.375 2.922 0 1.618 1.203 2.922 3.609 3.91l3.309 1.354c2.693 1.089 4.662 2.417 5.908 3.985s1.869 3.491 1.869 5.769c0 3.051-1.017 5.572-3.051 7.563-2.048 2.005-4.59 3.008-7.627 3.008-2.879 0-5.257-.852-7.133-2.557-1.848-1.704-3.001-4.104-3.459-7.197l5.07-1.117c.229 1.948.63 3.294 1.203 4.039 1.031 1.432 2.535 2.148 4.512 2.148 1.561 0 2.857-.523 3.889-1.568s1.547-2.37 1.547-3.975c0-.645-.09-1.235-.269-1.772s-.458-1.031-.838-1.482-.87-.874-1.472-1.268-1.318-.77-2.148-1.128l-3.201-1.332c-4.54-1.919-6.811-4.727-6.811-8.422 0-2.492.952-4.576 2.857-6.252 1.905-1.69 4.275-2.535 7.111-2.535 3.824 0 6.811 1.862 8.959 5.586h0z"/>
</svg>
